img/java-4.svg

<svg viewBox="0 0 270 256" xmlns="http://www.w3.org/2000/svg" xmlns:bx="https://boxy-svg.com"><path d="M104.718 196.835s-9.434 5.644 6.717 7.554c19.564 2.296 29.563 1.967 51.125-2.23 0 0 5.669 3.656 13.585 6.822-48.333 21.307-109.39-1.234-71.427-12.146m-5.905-27.803s-10.584 8.057 5.58 9.776c20.899 2.218 37.405 2.399 65.966-3.257 0 0 3.951 4.119 10.163 6.372-58.442 17.576-123.531 1.386-81.709-12.891" bx:origin="0.5 0.5" fill="#5382a1"/><path d="M148.604 121.867c11.909 14.103-3.13 26.795-3.13 26.795s30.241-16.057 16.352-36.164c-12.969-18.751-22.917-28.068 30.932-60.19.001-.001-84.525 21.713-44.154 69.559" bx:origin="0.5 0.5" fill="#e76f00"/><path d="M212.53 217.401s6.983 5.919-7.688 10.495c-27.901 8.694-116.122 11.319-140.629.348-8.809-3.943 7.711-9.414 12.908-10.561 5.419-1.209 8.516-.984 8.516-.984-9.797-7.098-63.325 13.938-27.19 19.964 98.549 16.438 179.647-7.402 154.083-19.262m-103.274-77.177s-44.875 10.963-15.89 14.943c12.238 1.686 36.633 1.304 59.354-.654 18.572-1.611 37.22-5.037 37.22-5.037s-6.548 2.885-11.285 6.211c-45.57 12.328-133.601 6.593-108.258-6.017 21.433-10.655 38.859-9.446 38.859-9.446m80.5 46.281c46.323-24.759 24.906-48.553 9.957-45.346-3.665.784-5.299 1.464-5.299 1.464s1.361-2.192 3.957-3.141c29.575-10.694 52.32 31.542-9.547 48.271 0 0 .718-.658.932-1.248" bx:origin="0.5 0.5" fill="#5382a1"/><path d="M161.826.438s25.655 26.395-24.33 66.986c-40.086 32.559-9.142 51.123-.018 72.335-23.397-21.714-40.567-40.828-29.049-58.617 16.908-26.115 63.75-38.776 53.397-80.704" bx:origin="0.5 0.5" fill="#e76f00"/><path d="M113.807 253.595c44.466 2.928 112.746-1.624 114.363-23.263 0 0-3.107 8.202-36.747 14.718-37.952 7.345-84.76 6.489-112.523 1.781.001-.002 5.685 4.837 34.907 6.764" bx:origin="0.5 0.5" fill="#5382a1"/></svg>

<?xml version="1.0" encoding="utf-8"?>
<svg id="Layer_1" style="enable-background:new 6.527 4.399 290.829 540.906;" x="0px" y="0px" viewBox="0 0 270 256" xmlns="http://www.w3.org/2000/svg" xmlns:bx="https://boxy-svg.com">
  <path style="fill: rgb(83, 130, 161); stroke-width: 0.676;" d="M 104.718 196.835 C 104.718 196.835 95.284 202.479 111.435 204.389 C 130.999 206.685 140.998 206.356 162.56 202.159 C 162.56 202.159 168.229 205.815 176.145 208.981 C 127.812 230.288 66.755 207.747 104.718 196.835" bx:origin="0.5 0.5"/>
  <path style="fill: rgb(83, 130, 161); stroke-width: 0.676;" d="M 98.813 169.032 C 98.813 169.032 88.229 177.089 104.393 178.808 C 125.292 181.026 141.798 181.207 170.359 175.551 C 170.359 175.551 174.31 179.67 180.522 181.923 C 122.08 199.499 56.991 183.309 98.813 169.032" bx:origin="0.5 0.5"/>
  <path style="fill: rgb(231, 111, 0); stroke-width: 0.676;" d="M 148.604 121.867 C 160.513 135.97 145.474 148.662 145.474 148.662 C 145.474 148.662 175.715 132.605 161.826 112.498 C 148.857 93.747 138.909 84.43 192.758 52.308 C 192.759 52.307 108.233 74.021 148.604 121.867" bx:origin="0.5 0.5"/>
  <path style="fill: rgb(83, 130, 161); stroke-width: 0.676;" d="M 212.53 217.401 C 212.53 217.401 219.513 223.32 204.842 227.896 C 176.941 236.59 88.72 239.215 64.213 228.244 C 55.404 224.301 71.924 218.83 77.121 217.683 C 82.54 216.474 85.637 216.699 85.637 216.699 C 75.84 209.601 22.312 230.637 58.447 236.663 C 156.996 253.101 238.094 229.261 212.53 217.401" bx:origin="0.5 0.5"/>
  <path style="fill: rgb(83, 130, 161); stroke-width: 0.676;" d="M 109.256 140.224 C 109.256 140.224 64.381 151.187 93.366 155.167 C 105.604 156.853 129.999 156.471 152.72 154.513 C 171.292 152.902 189.94 149.476 189.94 149.476 C 189.94 149.476 183.392 152.361 178.655 155.687 C 133.085 168.015 45.054 162.28 70.397 149.67 C 91.83 139.015 109.256 140.224 109.256 140.224" bx:origin="0.5 0.5"/>
  <path style="fill: rgb(83, 130, 161); stroke-width: 0.676;" d="M 189.756 186.505 C 236.079 161.746 214.662 137.952 199.713 141.159 C 196.048 141.943 194.414 142.623 194.414 142.623 C 194.414 142.623 195.775 140.431 198.371 139.482 C 227.946 128.788 250.691 171.024 188.824 187.753 C 188.824 187.753 189.542 187.095 189.756 186.505" bx:origin="0.5 0.5"/>
  <path style="fill: rgb(231, 111, 0); stroke-width: 0.676;" d="M 161.826 0.438 C 161.826 0.438 187.481 26.833 137.496 67.424 C 97.41 99.983 128.354 118.547 137.478 139.759 C 114.081 118.045 96.911 98.931 108.429 81.142 C 125.337 55.027 172.179 42.366 161.826 0.438" bx:origin="0.5 0.5"/>
  <path style="fill: rgb(83, 130, 161); stroke-width: 0.676;" d="M 113.807 253.595 C 158.273 256.523 226.553 251.971 228.17 230.332 C 228.17 230.332 225.063 238.534 191.423 245.05 C 153.471 252.395 106.663 251.539 78.9 246.831 C 78.901 246.829 84.585 251.668 113.807 253.595" bx:origin="0.5 0.5"/>
</svg>
